Newaita-dark/.LP/scalable/battery-low-charging.svg

<?xml version="1.0" encoding="UTF-8"?>
<svg xmlns="http://www.w3.org/2000/svg" xmlns:xlink="http://www.w3.org/1999/xlink" width="512pt" height="512pt" viewBox="0 0 512 512" version="1.1">
<g id="surface1">
<path style=" stroke:none;fill-rule:nonzero;fill:rgb(25.882354%,25.882354%,25.882354%);fill-opacity:1;" d="M 63.507812 99.257812 C 45.914062 99.257812 31.753906 113.421875 31.753906 131.011719 L 31.753906 385.035156 C 31.753906 402.628906 45.914062 416.789062 63.507812 416.789062 L 261.90625 416.789062 C 258.03125 406.808594 255.488281 396.152344 254.496094 385.035156 L 84.675781 385.035156 C 72.949219 385.035156 63.507812 375.59375 63.507812 363.867188 L 63.507812 152.179688 C 63.507812 140.453125 72.949219 131.011719 84.675781 131.011719 L 402.203125 131.011719 C 413.933594 131.011719 423.375 140.453125 423.375 152.179688 L 423.375 270.640625 C 447.558594 282.941406 466.816406 303.441406 477.535156 328.527344 C 483.179688 324.734375 486.878906 318.289062 486.878906 310.945312 L 486.878906 205.101562 C 486.878906 193.375 477.4375 183.933594 465.710938 183.933594 L 455.125 183.933594 L 455.125 131.011719 C 455.125 113.421875 440.964844 99.257812 423.375 99.257812 Z M 63.507812 99.257812 "/>
<path style=" stroke:none;fill-rule:nonzero;fill:rgb(25.882354%,25.882354%,25.882354%);fill-opacity:1;" d="M 105.84375 162.765625 L 127.011719 162.765625 C 132.859375 162.765625 137.597656 167.03125 137.597656 172.292969 L 137.597656 343.757812 C 137.597656 349.019531 132.859375 353.285156 127.011719 353.285156 L 105.84375 353.285156 C 99.996094 353.285156 95.257812 349.019531 95.257812 343.757812 L 95.257812 172.292969 C 95.257812 167.03125 99.996094 162.765625 105.84375 162.765625 Z M 105.84375 162.765625 "/>
<path style=" stroke:none;fill-rule:nonzero;fill:rgb(25.882354%,25.882354%,25.882354%);fill-opacity:0.392157;" d="M 190.519531 162.765625 L 211.6875 162.765625 C 217.53125 162.765625 222.269531 167.03125 222.269531 172.292969 L 222.269531 343.757812 C 222.269531 349.019531 217.53125 353.285156 211.6875 353.285156 L 190.519531 353.285156 C 184.671875 353.285156 179.933594 349.019531 179.933594 343.757812 L 179.933594 172.292969 C 179.933594 167.03125 184.671875 162.765625 190.519531 162.765625 Z M 190.519531 162.765625 "/>
<path style=" stroke:none;fill-rule:nonzero;fill:rgb(25.882354%,25.882354%,25.882354%);fill-opacity:0.392157;" d="M 275.191406 162.765625 C 269.328125 162.765625 264.609375 167.015625 264.609375 172.292969 L 264.609375 325.730469 C 273.828125 305.648438 288.582031 288.675781 306.945312 276.746094 L 306.945312 172.292969 C 306.945312 167.015625 302.226562 162.765625 296.363281 162.765625 Z M 275.191406 162.765625 "/>
<path style=" stroke:none;fill-rule:nonzero;fill:rgb(25.882354%,25.882354%,25.882354%);fill-opacity:0.392157;" d="M 359.867188 162.765625 C 354.003906 162.765625 349.285156 167.015625 349.285156 172.292969 L 349.285156 259.929688 C 356.144531 258.679688 363.21875 258.023438 370.453125 258.023438 C 377.683594 258.023438 384.757812 258.679688 391.621094 259.929688 L 391.621094 172.292969 C 391.621094 167.015625 386.898438 162.765625 381.035156 162.765625 Z M 359.867188 162.765625 "/>
<path style=" stroke:none;fill-rule:evenodd;fill:rgb(100%,43.921569%,26.274511%);fill-opacity:1;" d="M 418.082031 289.777344 L 301.652344 385.035156 L 354.574219 385.035156 L 322.824219 459.128906 L 439.25 363.867188 L 386.328125 363.867188 Z M 418.082031 289.777344 "/>
</g>
</svg>

<svg xmlns="http://www.w3.org/2000/svg" width="512pt" height="512pt" viewBox="0 0 512 512"><path d="M63.508 99.258c-17.594 0-31.754 14.164-31.754 31.754v254.023a31.682 31.682 0 0 0 31.754 31.754h198.398a116.166 116.166 0 0 1-7.41-31.754H84.676a21.122 21.122 0 0 1-21.168-21.168V152.18a21.122 21.122 0 0 1 21.168-21.168h317.527a21.123 21.123 0 0 1 21.172 21.168v118.46c24.184 12.301 43.441 32.801 54.16 57.887a21.11 21.11 0 0 0 9.344-17.582V205.102a21.122 21.122 0 0 0-21.168-21.168h-10.586v-52.922c0-17.59-14.16-31.754-31.75-31.754zm0 0" fill="#424242"/><path d="M105.844 162.766h21.168c5.847 0 10.586 4.265 10.586 9.527v171.465c0 5.262-4.739 9.527-10.586 9.527h-21.168c-5.848 0-10.586-4.265-10.586-9.527V172.293c0-5.262 4.738-9.527 10.586-9.527zm0 0" fill="#424242"/><path d="M190.52 162.766h21.167c5.844 0 10.583 4.265 10.583 9.527v171.465c0 5.262-4.739 9.527-10.583 9.527H190.52c-5.848 0-10.586-4.265-10.586-9.527V172.293c0-5.262 4.738-9.527 10.586-9.527zm0 0M275.191 162.766c-5.863 0-10.582 4.25-10.582 9.527V325.73a116.364 116.364 0 0 1 42.336-48.984V172.293c0-5.277-4.718-9.527-10.582-9.527zm0 0M359.867 162.766c-5.863 0-10.582 4.25-10.582 9.527v87.637a117.993 117.993 0 0 1 21.168-1.907c7.23 0 14.305.657 21.168 1.907v-87.637c0-5.277-4.723-9.527-10.586-9.527zm0 0" fill="#424242" fill-opacity=".392"/><path d="M418.082 289.777l-116.43 95.258h52.922l-31.75 74.094 116.426-95.262h-52.922zm0 0" fill-rule="evenodd" fill="#ff7043"/></svg>
